images/checkout/sale-label.svg

<svg width="75" height="75" viewBox="0 0 75 75" fill="none" xmlns="http://www.w3.org/2000/svg">
<rect x="0.108154" y="0.128906" width="28" height="2" fill="#008752"/>
<rect x="72.1082" y="74.1289" width="28" height="2" transform="rotate(-90 72.1082 74.1289)" fill="#008752"/>
<path d="M28.107 0.0534906L74.1082 46.1294L74.1908 74.2444L-2.38218e-05 0.0534906H28.107Z" fill="#1AB248"/>
<path d="M30.1563 11.1042C30.8068 11.7547 31.1533 12.4501 31.1957 13.1902C31.2476 13.9303 30.9907 14.6067 30.425 15.2196L29.1593 13.9538C29.4044 13.6521 29.5199 13.3434 29.5057 13.0275C29.4963 12.7164 29.3596 12.4288 29.0956 12.1649C28.7609 11.8302 28.3555 11.7076 27.8794 11.7972C27.4127 11.8867 26.9366 12.1743 26.451 12.6598C25.9655 13.1454 25.6756 13.6239 25.5813 14.0953C25.4964 14.5667 25.6167 14.965 25.9419 15.2903C26.2059 15.5543 26.4982 15.691 26.8187 15.7004C27.144 15.7145 27.4646 15.5967 27.7804 15.3468L29.0603 16.6267C28.3909 17.2018 27.6885 17.4611 26.9531 17.4045C26.2177 17.348 25.5271 16.9968 24.8813 16.3509C24.1553 15.625 23.8159 14.8189 23.863 13.9326C23.9196 13.0464 24.3556 12.1955 25.1712 11.38C25.9867 10.5644 26.8376 10.1331 27.7238 10.086C28.6148 10.0341 29.4256 10.3735 30.1563 11.1042ZM32.0431 19.454L31.5411 22.7845L30.0986 21.342L30.7138 18.7045L30.6996 18.6904L29.0733 20.3167L27.8995 19.1429L31.4916 15.5508L32.6654 16.7246L31.2512 18.1388L31.2653 18.1529L33.6412 17.7004L34.9989 19.058L32.0431 19.454ZM39.5195 23.5787L35.9274 27.1708L34.7889 26.0323L36.0617 24.7595C36.5331 24.2881 37.0281 23.8356 37.5466 23.4019L37.5325 23.3877C36.9574 23.6894 36.3399 23.9534 35.6799 24.1797L33.6293 24.8727L31.9322 23.1756L35.5243 19.5835L36.6628 20.722L35.3829 22.0018C34.8926 22.4921 34.3977 22.9399 33.898 23.3453L33.9121 23.3595C34.5155 23.0578 35.1354 22.7961 35.7718 22.5746L37.8224 21.8816L39.5195 23.5787ZM41.3625 30.8947L41.8433 31.3755L39.8563 33.3625L38.6967 32.2028L39.8281 31.0715L37.537 28.7804L36.4057 29.9118L35.246 28.7521L37.233 26.7652L37.6643 27.1965C37.999 27.1164 38.3974 26.916 38.8593 26.5955C39.3307 26.2749 40.0025 25.721 40.8746 24.9338L44.099 28.1582L41.3625 30.8947ZM40.2028 29.735L42.0837 27.8541L41.1221 26.8925C40.2783 27.6514 39.5617 28.1888 38.9725 28.5047L40.2028 29.735ZM45.619 33.0299L45.117 36.3604L43.6745 34.9179L44.2897 32.2804L44.2755 32.2662L42.6492 33.8926L41.4754 32.7188L45.0675 29.1267L46.2413 30.3005L44.8271 31.7147L44.8412 31.7288L47.2171 31.2763L48.5748 32.6339L45.619 33.0299ZM50.6782 34.5111C51.7672 35.6001 51.8261 36.6301 50.855 37.6012L49.6176 38.8386C49.1886 39.2676 48.8869 39.64 48.7125 39.9559L47.6518 38.8952C47.7508 38.7302 47.8899 38.5582 48.069 38.379L48.0549 38.3649C47.409 38.4639 46.8339 38.2612 46.3295 37.7568C45.9477 37.3749 45.7497 36.9695 45.7356 36.5405C45.7214 36.1116 45.8746 35.7368 46.1952 35.4162C46.511 35.1004 46.8716 34.9566 47.277 34.9849C47.6872 35.0179 48.1892 35.2513 48.7832 35.6849C49.1273 35.9348 49.4479 36.1893 49.7448 36.4486L49.8721 36.3213C50.2493 35.9442 50.2705 35.5883 49.9358 35.2536C49.6058 34.9236 49.2687 34.9213 48.9246 35.2465L47.7932 34.1152C48.1751 33.771 48.6182 33.6202 49.1226 33.6626C49.6317 33.7003 50.1503 33.9832 50.6782 34.5111ZM48.9741 37.2194L49.1014 37.0921C48.8657 36.8752 48.63 36.6867 48.3943 36.5264C48.1869 36.385 48.0054 36.3119 47.8498 36.3072C47.7037 36.3025 47.567 36.3638 47.4397 36.491C47.3124 36.6183 47.2511 36.7597 47.2558 36.9153C47.2653 37.0662 47.343 37.2147 47.4892 37.3608C47.739 37.6106 47.9842 37.7143 48.2246 37.6719C48.465 37.6295 48.7148 37.4786 48.9741 37.2194ZM59.199 40.9106L58.2302 41.8793L56.0382 39.6873L54.9776 40.55L54.9917 40.5641C55.4772 40.5782 55.9109 40.7762 56.2928 41.1581C56.7642 41.6295 57.0022 42.1598 57.0069 42.7491C57.0117 43.3383 56.7807 43.8663 56.314 44.333C55.7907 44.8562 55.1944 45.099 54.525 45.0613C53.8603 45.0189 53.2381 44.7077 52.6582 44.1279C52.102 43.5717 51.7885 42.9989 51.7178 42.4096C51.6518 41.8157 51.8451 41.2924 52.2976 40.8399L53.5138 42.0561C53.3488 42.2305 53.2758 42.4261 53.2946 42.643C53.3182 42.8551 53.4172 43.0484 53.5916 43.2228C53.8132 43.4444 54.0465 43.5504 54.2917 43.541C54.5368 43.5316 54.7819 43.4043 55.027 43.1592C55.2675 42.9188 55.3877 42.676 55.3877 42.4309C55.3971 42.1857 55.2981 41.9595 55.0907 41.752C54.9257 41.587 54.7466 41.4928 54.5533 41.4692C54.3694 41.4456 54.1903 41.488 54.0159 41.5965L52.9128 40.3378L56.0382 37.7498L59.199 40.9106ZM61.5469 48.0385C62.0089 48.0008 62.4355 48.1776 62.8268 48.5689C63.218 48.9601 63.3948 49.3868 63.3571 49.8487C63.3241 50.3154 63.0766 50.7798 62.6146 51.2417C62.1527 51.7037 61.6883 51.9512 61.2216 51.9842C60.7597 52.0219 60.333 51.8451 59.9418 51.4539C59.5505 51.0626 59.3737 50.636 59.4114 50.174C59.4492 49.712 59.699 49.2501 60.161 48.7881C60.623 48.3261 61.0849 48.0763 61.5469 48.0385ZM61.759 50.3861C62.3012 49.844 62.4473 49.448 62.1974 49.1982C61.9476 48.9484 61.5516 49.0945 61.0095 49.6366C60.4721 50.174 60.3283 50.5676 60.5782 50.8175C60.828 51.0673 61.2216 50.9235 61.759 50.3861ZM60.1893 42.3817C60.6512 42.344 61.0779 42.5208 61.4691 42.912C61.8604 43.3033 62.0372 43.7299 61.9995 44.1919C61.9665 44.6586 61.719 45.1229 61.257 45.5849C60.795 46.0469 60.3307 46.2943 59.864 46.3273C59.402 46.3651 58.9754 46.1883 58.5841 45.797C58.1929 45.4057 58.0161 44.9791 58.0538 44.5172C58.0915 44.0552 58.3414 43.5932 58.8033 43.1312C59.2653 42.6692 59.7273 42.4194 60.1893 42.3817ZM60.4014 44.7293C60.9388 44.1919 61.0826 43.7983 60.8327 43.5484C60.5829 43.2986 60.1893 43.4423 59.6519 43.9797C59.1097 44.5219 58.9636 44.9178 59.2135 45.1677C59.4633 45.4175 59.8593 45.2714 60.4014 44.7293ZM64.9693 46.2566L57.1558 48.8234L56.4487 48.1163L64.2622 45.5495L64.9693 46.2566Z" fill="white"/>
</svg>

<svg width="75" height="75" fill="none" xmlns="http://www.w3.org/2000/svg"><path fill="#008752" d="M.108.129h28v2h-28zm72 74.001v-28h2v28z"/><path d="M28.107.053L74.108 46.13l.083 28.115L0 .054h28.107z" fill="#1AB248"/><path d="M30.156 11.104c.65.65.997 1.346 1.04 2.086.052.74-.205 1.417-.771 2.03l-1.266-1.266c.245-.302.36-.61.347-.927-.01-.31-.146-.598-.41-.862-.335-.335-.74-.457-1.217-.368-.466.09-.942.377-1.428.863-.486.485-.775.964-.87 1.435-.085.472.036.87.36 1.195.265.264.557.401.878.41.325.014.646-.103.961-.353l1.28 1.28c-.67.575-1.371.834-2.107.777-.735-.056-1.426-.407-2.072-1.053-.726-.726-1.065-1.532-1.018-2.418.057-.887.493-1.738 1.308-2.553.816-.816 1.667-1.247 2.553-1.294.89-.052 1.702.287 2.432 1.018zm1.887 8.35l-.502 3.33-1.442-1.442.615-2.637-.014-.015-1.627 1.627-1.174-1.174 3.593-3.592 1.173 1.174-1.414 1.414.014.014 2.376-.453L35 19.058l-2.956.396zm7.477 4.125l-3.593 3.592-1.138-1.139 1.273-1.273c.471-.47.966-.923 1.485-1.357l-.014-.014a13.19 13.19 0 01-1.853.792l-2.05.693-1.698-1.697 3.592-3.592 1.139 1.138-1.28 1.28c-.49.49-.985.938-1.485 1.343l.014.015a15.678 15.678 0 011.86-.785l2.05-.693 1.697 1.697zm1.842 7.316l.481.48-1.987 1.987-1.16-1.16 1.132-1.13-2.291-2.292-1.131 1.132-1.16-1.16 1.987-1.987.431.431c.335-.08.733-.28 1.195-.6.472-.321 1.143-.875 2.016-1.662l3.224 3.224-2.736 2.737zm-1.16-1.16l1.882-1.88-.962-.963c-.844.76-1.56 1.297-2.15 1.613l1.23 1.23zm5.417 3.295l-.502 3.33-1.442-1.442.615-2.638-.014-.014-1.627 1.627-1.174-1.174 3.593-3.592L46.24 30.3l-1.414 1.414.014.014 2.376-.453 1.358 1.358-2.956.396zm5.06 1.481c1.088 1.09 1.147 2.12.176 3.09l-1.237 1.238c-.43.429-.731.801-.906 1.117l-1.06-1.06c.099-.166.238-.338.417-.517l-.014-.014c-.646.099-1.221-.104-1.725-.608-.382-.382-.58-.788-.594-1.216-.015-.43.139-.804.46-1.125.315-.316.676-.46 1.081-.431.41.033.912.266 1.506.7.344.25.665.504.962.764l.127-.128c.377-.377.398-.733.064-1.067-.33-.33-.667-.333-1.011-.008l-1.132-1.13a1.697 1.697 0 011.33-.453c.509.037 1.027.32 1.555.848zm-1.705 2.708l.127-.127a6.188 6.188 0 00-.707-.566c-.207-.141-.389-.214-.544-.219-.146-.005-.283.057-.41.184a.562.562 0 00-.184.424c.01.151.087.3.233.446.25.25.495.353.736.31.24-.041.49-.192.75-.452zM59.2 40.911l-.969.968-2.192-2.192-1.06.863.014.014c.485.014.919.212 1.3.594.472.471.71 1.002.715 1.591.005.59-.226 1.117-.693 1.584-.523.523-1.12.766-1.789.728-.665-.042-1.287-.353-1.867-.933-.556-.556-.87-1.13-.94-1.718-.066-.594.127-1.118.58-1.57l1.216 1.216a.734.734 0 00-.22.587.961.961 0 00.298.58c.221.221.455.327.7.318.245-.01.49-.137.735-.382.24-.24.36-.483.36-.728.01-.245-.089-.471-.296-.679a.913.913 0 00-.538-.283.802.802 0 00-.537.127l-1.103-1.258 3.125-2.588 3.161 3.16zm2.348 7.127c.462-.037.889.14 1.28.53.391.392.568.819.53 1.28-.033.467-.28.932-.742 1.394-.462.462-.927.71-1.393.742-.462.038-.889-.139-1.28-.53-.392-.391-.568-.818-.53-1.28.037-.462.287-.924.749-1.386.462-.462.924-.712 1.386-.75zm.212 2.348c.542-.542.688-.938.438-1.188-.25-.25-.645-.104-1.188.439-.537.537-.68.93-.43 1.18.249.25.643.106 1.18-.43zm-1.57-8.004c.462-.038.889.139 1.28.53s.568.818.53 1.28c-.032.467-.28.93-.742 1.393-.462.462-.926.71-1.393.742-.462.038-.889-.139-1.28-.53s-.568-.818-.53-1.28c.038-.462.287-.924.75-1.386.461-.462.923-.712 1.385-.75zm.212 2.347c.538-.537.682-.93.432-1.18-.25-.25-.644-.107-1.181.43-.542.543-.688.939-.438 1.189.25.25.645.103 1.187-.439zm4.568 1.528l-7.813 2.566-.707-.707 7.813-2.566.707.707z" fill="#fff"/></svg>
